X: 9320
T: Dancin' Nancy
R: mazurka
M: 3/4
K: Gmajor
D|:G2 GA B/A/G|A2 AB cA|GF GA Bc|d2 g2 d2|
ec ec eg|ge dB AG|1 AD FA d^c|d^c de dB:|2 AD FA dF|G2 G2||
gf|:e2 ec eg|ge dB AG|AD FA d^c|d^c de dB|
e2 ec eg|ge dB AG|1 AD FA c/B/A|G2 G2:|2 AD FA d^c|d^c de d||

